X: 915
T: Jacks the lad
C: anon.
O: Ireland
B: Francis O'Neill: "The Dance Music of Ireland" (1907) no. 915
R: Hornpipe
Z: Transcribed by Frank Nordberg - http://www.musicaviva.com
F: http://www.musicaviva.com/abc/tunes/ireland/oneill-1001/oneill-1001-091
5.abc
M: C|
L: 1/8
K: D
(3ABc|d2D2D2(AG)|FAdc defd|e2E2E2(ed)|cea^ga2f2|gfga bagf|gfec dcBA|Adce
dfeg|f2d2d2:|
|:(AG)|FAdA FAdA|B2G2G2(GF)|GBec GBed|c2A2A2(ef)|gfga bagf|gfec dcBA|Bdce
 dfeg|f2d2d2:|
W:
W:
W: From Musica Viva - http://www.musicaviva.com
W: the Internet center for free sheet music downloads.


